images/11949182.svg

<?xml version="1.0" encoding="UTF-8"?>
<svg xmlns="http://www.w3.org/2000/svg" xmlns:xlink="http://www.w3.org/1999/xlink" width="300pt" height="300pt" viewBox="0 0 300 300" version="1.1">
<defs>
<g>
<symbol overflow="visible" id="glyph0-0">
<path style="stroke:none;" d="M 0.453125 1.59375 L 0.453125 -6.34375 L 4.953125 -6.34375 L 4.953125 1.59375 Z M 0.953125 1.09375 L 4.453125 1.09375 L 4.453125 -5.84375 L 0.953125 -5.84375 Z M 0.953125 1.09375 "/>
</symbol>
<symbol overflow="visible" id="glyph0-1">
<path style="stroke:none;" d="M 0.890625 -6.5625 L 2.078125 -6.5625 L 4.984375 -1.078125 L 4.984375 -6.5625 L 5.84375 -6.5625 L 5.84375 0 L 4.65625 0 L 1.75 -5.484375 L 1.75 0 L 0.890625 0 Z M 0.890625 -6.5625 "/>
</symbol>
<symbol overflow="visible" id="glyph0-2">
<path style="stroke:none;" d="M 3.546875 -5.953125 C 2.898438 -5.953125 2.382812 -5.710938 2 -5.234375 C 1.625 -4.753906 1.4375 -4.101562 1.4375 -3.28125 C 1.4375 -2.445312 1.625 -1.789062 2 -1.3125 C 2.382812 -0.832031 2.898438 -0.59375 3.546875 -0.59375 C 4.191406 -0.59375 4.703125 -0.832031 5.078125 -1.3125 C 5.453125 -1.789062 5.640625 -2.445312 5.640625 -3.28125 C 5.640625 -4.101562 5.453125 -4.753906 5.078125 -5.234375 C 4.703125 -5.710938 4.191406 -5.953125 3.546875 -5.953125 Z M 3.546875 -6.6875 C 4.460938 -6.6875 5.195312 -6.375 5.75 -5.75 C 6.300781 -5.132812 6.578125 -4.3125 6.578125 -3.28125 C 6.578125 -2.238281 6.300781 -1.410156 5.75 -0.796875 C 5.195312 -0.179688 4.460938 0.125 3.546875 0.125 C 2.617188 0.125 1.878906 -0.179688 1.328125 -0.796875 C 0.773438 -1.410156 0.5 -2.238281 0.5 -3.28125 C 0.5 -4.3125 0.773438 -5.132812 1.328125 -5.75 C 1.878906 -6.375 2.617188 -6.6875 3.546875 -6.6875 Z M 3.546875 -6.6875 "/>
</symbol>
<symbol overflow="visible" id="glyph0-3">
<path style="stroke:none;" d="M 0.890625 -6.5625 L 4.65625 -6.5625 L 4.65625 -5.8125 L 1.765625 -5.8125 L 1.765625 -3.875 L 4.375 -3.875 L 4.375 -3.140625 L 1.765625 -3.140625 L 1.765625 0 L 0.890625 0 Z M 0.890625 -6.5625 "/>
</symbol>
</g>
</defs>
<g id="surface49073">
<rect x="0" y="0" width="300" height="300" style="fill:rgb(100%,100%,100%);fill-opacity:1;stroke:none;"/>
<path style="fill:none;stroke-width:1.2;stroke-linecap:butt;stroke-linejoin:miter;stroke:rgb(0%,0%,0%);stroke-opacity:1;stroke-miterlimit:10;" d="M 218.082031 202.914062 L 209.027344 194.945312 "/>
<path style="fill:none;stroke-width:1.2;stroke-linecap:butt;stroke-linejoin:miter;stroke:rgb(0%,0%,100%);stroke-opacity:1;stroke-miterlimit:10;" d="M 209.027344 194.945312 L 199.976562 186.976562 "/>
<path style="fill:none;stroke-width:1.2;stroke-linecap:butt;stroke-linejoin:miter;stroke:rgb(0%,0%,100%);stroke-opacity:1;stroke-miterlimit:10;" d="M 199.976562 186.976562 L 188.207031 189.617188 "/>
<path style="fill:none;stroke-width:1.2;stroke-linecap:butt;stroke-linejoin:miter;stroke:rgb(0%,0%,0%);stroke-opacity:1;stroke-miterlimit:10;" d="M 188.207031 189.617188 L 176.441406 192.257812 "/>
<path style="fill:none;stroke-width:1.2;stroke-linecap:butt;stroke-linejoin:miter;stroke:rgb(0%,0%,0%);stroke-opacity:1;stroke-miterlimit:10;" d="M 202.222656 162.964844 L 201.101562 174.972656 "/>
<path style="fill:none;stroke-width:1.2;stroke-linecap:butt;stroke-linejoin:miter;stroke:rgb(0%,0%,100%);stroke-opacity:1;stroke-miterlimit:10;" d="M 201.101562 174.972656 L 199.976562 186.976562 "/>
<path style=" stroke:none;fill-rule:nonzero;fill:rgb(100%,100%,100%);fill-opacity:1;" d="M 196.976562 181.476562 L 203.976562 181.476562 L 203.976562 192.476562 L 196.976562 192.476562 Z M 196.976562 181.476562 "/>
<g style="fill:rgb(0%,0%,100%);fill-opacity:1;">
  <use xlink:href="#glyph0-1" x="196.976562" y="190.139648"/>
</g>
<path style="fill:none;stroke-width:1;stroke-linecap:butt;stroke-linejoin:miter;stroke:rgb(0%,0%,0%);stroke-opacity:1;stroke-miterlimit:10;" d="M 164.144531 171.507812 L 164.144531 171.507812 M 165.203125 174.316406 L 166.097656 173.785156 M 166.257812 177.125 L 168.054688 176.058594 M 167.316406 179.929688 L 170.007812 178.335938 M 168.375 182.738281 L 171.960938 180.613281 M 169.433594 185.546875 L 173.917969 182.886719 M 170.488281 188.351562 L 175.871094 185.164062 M 171.546875 191.160156 L 177.828125 187.441406 M 172.605469 193.96875 L 179.78125 189.714844 M 172.777344 194.429688 L 180.101562 190.089844 "/>
<path style="fill:none;stroke-width:1.2;stroke-linecap:butt;stroke-linejoin:miter;stroke:rgb(0%,0%,0%);stroke-opacity:1;stroke-miterlimit:10;" d="M 164.144531 171.507812 L 142 161.949219 "/>
<path style="fill:none;stroke-width:1.2;stroke-linecap:butt;stroke-linejoin:miter;stroke:rgb(0%,0%,0%);stroke-opacity:1;stroke-miterlimit:10;" d="M 180.082031 153.402344 L 164.144531 171.507812 "/>
<path style="fill:none;stroke-width:1.2;stroke-linecap:butt;stroke-linejoin:miter;stroke:rgb(0%,0%,0%);stroke-opacity:1;stroke-miterlimit:10;" d="M 142 161.949219 L 148.761719 139.882812 "/>
<path style="fill:none;stroke-width:1.2;stroke-linecap:butt;stroke-linejoin:miter;stroke:rgb(0%,0%,0%);stroke-opacity:1;stroke-miterlimit:10;" d="M 142 161.949219 L 121.25 174.242188 "/>
<path style="fill:none;stroke-width:1.2;stroke-linecap:butt;stroke-linejoin:miter;stroke:rgb(0%,0%,0%);stroke-opacity:1;stroke-miterlimit:10;" d="M 148.761719 139.882812 L 157.660156 162.300781 "/>
<path style="fill:none;stroke-width:1.2;stroke-linecap:butt;stroke-linejoin:miter;stroke:rgb(0%,0%,0%);stroke-opacity:1;stroke-miterlimit:10;" d="M 148.761719 139.882812 L 126.621094 130.320312 "/>
<path style="fill:none;stroke-width:1.2;stroke-linecap:butt;stroke-linejoin:miter;stroke:rgb(0%,0%,0%);stroke-opacity:1;stroke-miterlimit:10;" d="M 171.183594 130.984375 L 148.761719 139.882812 "/>
<path style="fill:none;stroke-width:1.2;stroke-linecap:butt;stroke-linejoin:miter;stroke:rgb(0%,0%,0%);stroke-opacity:1;stroke-miterlimit:10;" d="M 157.660156 162.300781 L 180.082031 153.402344 "/>
<path style="fill:none;stroke-width:1.2;stroke-linecap:butt;stroke-linejoin:miter;stroke:rgb(0%,0%,0%);stroke-opacity:1;stroke-miterlimit:10;" d="M 180.082031 153.402344 L 171.183594 130.984375 "/>
<path style="fill:none;stroke-width:1.2;stroke-linecap:butt;stroke-linejoin:miter;stroke:rgb(0%,0%,0%);stroke-opacity:1;stroke-miterlimit:10;" d="M 180.082031 153.402344 L 202.222656 162.964844 "/>
<path style=" stroke:none;fill-rule:nonzero;fill:rgb(0%,0%,0%);fill-opacity:1;" d="M 202.222656 162.964844 L 225.144531 154.328125 L 220.804688 147.007812 Z M 202.222656 162.964844 "/>
<path style="fill:none;stroke-width:1.2;stroke-linecap:butt;stroke-linejoin:miter;stroke:rgb(0%,0%,0%);stroke-opacity:1;stroke-miterlimit:10;" d="M 222.976562 150.667969 L 244 162.492188 "/>
<path style="fill:none;stroke-width:1.2;stroke-linecap:butt;stroke-linejoin:miter;stroke:rgb(0%,0%,0%);stroke-opacity:1;stroke-miterlimit:10;" d="M 227.859375 146.902344 L 244.679688 156.363281 "/>
<path style="fill:none;stroke-width:1.2;stroke-linecap:butt;stroke-linejoin:miter;stroke:rgb(0%,0%,0%);stroke-opacity:1;stroke-miterlimit:10;" d="M 222.703125 126.550781 L 222.976562 150.667969 "/>
<path style="fill:none;stroke-width:1.2;stroke-linecap:butt;stroke-linejoin:miter;stroke:rgb(0%,0%,0%);stroke-opacity:1;stroke-miterlimit:10;" d="M 244 162.492188 L 264.75 150.195312 "/>
<path style="fill:none;stroke-width:1.2;stroke-linecap:butt;stroke-linejoin:miter;stroke:rgb(0%,0%,0%);stroke-opacity:1;stroke-miterlimit:10;" d="M 264.75 150.195312 L 264.476562 126.078125 "/>
<path style="fill:none;stroke-width:1.2;stroke-linecap:butt;stroke-linejoin:miter;stroke:rgb(0%,0%,0%);stroke-opacity:1;stroke-miterlimit:10;" d="M 259.046875 147.847656 L 258.828125 128.554688 "/>
<path style="fill:none;stroke-width:1.2;stroke-linecap:butt;stroke-linejoin:miter;stroke:rgb(0%,0%,0%);stroke-opacity:1;stroke-miterlimit:10;" d="M 264.476562 126.078125 L 243.453125 114.253906 "/>
<path style="fill:none;stroke-width:1.2;stroke-linecap:butt;stroke-linejoin:miter;stroke:rgb(0%,0%,0%);stroke-opacity:1;stroke-miterlimit:10;" d="M 243.453125 114.253906 L 222.703125 126.550781 "/>
<path style="fill:none;stroke-width:1.2;stroke-linecap:butt;stroke-linejoin:miter;stroke:rgb(0%,0%,0%);stroke-opacity:1;stroke-miterlimit:10;" d="M 244.273438 120.367188 L 227.671875 130.203125 "/>
<path style="fill:none;stroke-width:1.2;stroke-linecap:butt;stroke-linejoin:miter;stroke:rgb(0%,0%,0%);stroke-opacity:1;stroke-miterlimit:10;" d="M 126.621094 130.320312 L 123.828125 106.363281 "/>
<path style="fill:none;stroke-width:1.2;stroke-linecap:butt;stroke-linejoin:miter;stroke:rgb(0%,0%,0%);stroke-opacity:1;stroke-miterlimit:10;" d="M 120.703125 128.582031 L 118.46875 109.414062 "/>
<path style="fill:none;stroke-width:1.2;stroke-linecap:butt;stroke-linejoin:miter;stroke:rgb(0%,0%,0%);stroke-opacity:1;stroke-miterlimit:10;" d="M 107.265625 144.71875 L 126.621094 130.320312 "/>
<path style="fill:none;stroke-width:1.2;stroke-linecap:butt;stroke-linejoin:miter;stroke:rgb(0%,0%,0%);stroke-opacity:1;stroke-miterlimit:10;" d="M 123.828125 106.363281 L 101.683594 96.800781 "/>
<path style="fill:none;stroke-width:1.2;stroke-linecap:butt;stroke-linejoin:miter;stroke:rgb(0%,0%,0%);stroke-opacity:1;stroke-miterlimit:10;" d="M 101.683594 96.800781 L 82.332031 111.199219 "/>
<path style="fill:none;stroke-width:1.2;stroke-linecap:butt;stroke-linejoin:miter;stroke:rgb(0%,0%,0%);stroke-opacity:1;stroke-miterlimit:10;" d="M 103.136719 102.796875 L 87.652344 114.3125 "/>
<path style="fill:none;stroke-width:1.2;stroke-linecap:butt;stroke-linejoin:miter;stroke:rgb(0%,0%,0%);stroke-opacity:1;stroke-miterlimit:10;" d="M 82.332031 111.199219 L 85.121094 135.15625 "/>
<path style="fill:none;stroke-width:1.2;stroke-linecap:butt;stroke-linejoin:miter;stroke:rgb(0%,0%,0%);stroke-opacity:1;stroke-miterlimit:10;" d="M 82.332031 111.199219 L 60.1875 101.636719 "/>
<path style="fill:none;stroke-width:1.2;stroke-linecap:butt;stroke-linejoin:miter;stroke:rgb(0%,0%,0%);stroke-opacity:1;stroke-miterlimit:10;" d="M 85.121094 135.15625 L 107.265625 144.71875 "/>
<path style="fill:none;stroke-width:1.2;stroke-linecap:butt;stroke-linejoin:miter;stroke:rgb(0%,0%,0%);stroke-opacity:1;stroke-miterlimit:10;" d="M 89.585938 130.902344 L 107.300781 138.550781 "/>
<path style="fill:none;stroke-width:1.2;stroke-linecap:butt;stroke-linejoin:miter;stroke:rgb(0%,0%,0%);stroke-opacity:1;stroke-miterlimit:10;" d="M 58.492188 99.363281 L 48.816406 106.558594 "/>
<path style="fill:none;stroke-width:1.2;stroke-linecap:butt;stroke-linejoin:miter;stroke:rgb(100%,0%,0%);stroke-opacity:1;stroke-miterlimit:10;" d="M 48.816406 106.558594 L 39.140625 113.757812 "/>
<path style="fill:none;stroke-width:1.2;stroke-linecap:butt;stroke-linejoin:miter;stroke:rgb(0%,0%,0%);stroke-opacity:1;stroke-miterlimit:10;" d="M 61.878906 103.914062 L 52.203125 111.113281 "/>
<path style="fill:none;stroke-width:1.2;stroke-linecap:butt;stroke-linejoin:miter;stroke:rgb(100%,0%,0%);stroke-opacity:1;stroke-miterlimit:10;" d="M 52.203125 111.113281 L 42.527344 118.3125 "/>
<path style="fill:none;stroke-width:1.2;stroke-linecap:butt;stroke-linejoin:miter;stroke:rgb(0%,0%,0%);stroke-opacity:1;stroke-miterlimit:10;" d="M 60.1875 101.636719 L 58.789062 89.660156 "/>
<path style="fill:none;stroke-width:1.2;stroke-linecap:butt;stroke-linejoin:miter;stroke:rgb(100%,0%,0%);stroke-opacity:1;stroke-miterlimit:10;" d="M 58.789062 89.660156 L 57.394531 77.679688 "/>
<path style=" stroke:none;fill-rule:nonzero;fill:rgb(100%,100%,100%);fill-opacity:1;" d="M 32.835938 110.535156 L 40.835938 110.535156 L 40.835938 121.535156 L 32.835938 121.535156 Z M 32.835938 110.535156 "/>
<g style="fill:rgb(100%,0%,0%);fill-opacity:1;">
  <use xlink:href="#glyph0-2" x="32.835938" y="119.198242"/>
</g>
<path style="fill:none;stroke-width:1.2;stroke-linecap:butt;stroke-linejoin:miter;stroke:rgb(100%,0%,0%);stroke-opacity:1;stroke-miterlimit:10;" d="M 57.394531 77.679688 L 46.320312 72.898438 "/>
<path style="fill:none;stroke-width:1.2;stroke-linecap:butt;stroke-linejoin:miter;stroke:rgb(0%,0%,0%);stroke-opacity:1;stroke-miterlimit:10;" d="M 46.320312 72.898438 L 35.25 68.121094 "/>
<path style=" stroke:none;fill-rule:nonzero;fill:rgb(100%,100%,100%);fill-opacity:1;" d="M 53.394531 72.179688 L 61.394531 72.179688 L 61.394531 83.179688 L 53.394531 83.179688 Z M 53.394531 72.179688 "/>
<g style="fill:rgb(100%,0%,0%);fill-opacity:1;">
  <use xlink:href="#glyph0-2" x="53.394531" y="80.842773"/>
</g>
<path style="fill:none;stroke-width:1.2;stroke-linecap:butt;stroke-linejoin:miter;stroke:rgb(0%,0%,0%);stroke-opacity:1;stroke-miterlimit:10;" d="M 121.25 174.242188 L 100.226562 162.421875 "/>
<path style="fill:none;stroke-width:1.2;stroke-linecap:butt;stroke-linejoin:miter;stroke:rgb(0%,0%,0%);stroke-opacity:1;stroke-miterlimit:10;" d="M 116.363281 178.007812 L 99.546875 168.550781 "/>
<path style="fill:none;stroke-width:1.2;stroke-linecap:butt;stroke-linejoin:miter;stroke:rgb(0%,0%,0%);stroke-opacity:1;stroke-miterlimit:10;" d="M 121.523438 198.363281 L 121.25 174.242188 "/>
<path style="fill:none;stroke-width:1.2;stroke-linecap:butt;stroke-linejoin:miter;stroke:rgb(0%,0%,0%);stroke-opacity:1;stroke-miterlimit:10;" d="M 100.226562 162.421875 L 79.476562 174.714844 "/>
<path style="fill:none;stroke-width:1.2;stroke-linecap:butt;stroke-linejoin:miter;stroke:rgb(0%,0%,0%);stroke-opacity:1;stroke-miterlimit:10;" d="M 79.476562 174.714844 L 79.746094 198.832031 "/>
<path style="fill:none;stroke-width:1.2;stroke-linecap:butt;stroke-linejoin:miter;stroke:rgb(0%,0%,0%);stroke-opacity:1;stroke-miterlimit:10;" d="M 85.175781 177.0625 L 85.394531 196.359375 "/>
<path style="fill:none;stroke-width:1.2;stroke-linecap:butt;stroke-linejoin:miter;stroke:rgb(0%,0%,0%);stroke-opacity:1;stroke-miterlimit:10;" d="M 79.746094 198.832031 L 100.769531 210.65625 "/>
<path style="fill:none;stroke-width:1.2;stroke-linecap:butt;stroke-linejoin:miter;stroke:rgb(0%,0%,0%);stroke-opacity:1;stroke-miterlimit:10;" d="M 79.746094 198.832031 L 58.996094 211.128906 "/>
<path style="fill:none;stroke-width:1.2;stroke-linecap:butt;stroke-linejoin:miter;stroke:rgb(0%,0%,0%);stroke-opacity:1;stroke-miterlimit:10;" d="M 100.769531 210.65625 L 121.523438 198.363281 "/>
<path style="fill:none;stroke-width:1.2;stroke-linecap:butt;stroke-linejoin:miter;stroke:rgb(0%,0%,0%);stroke-opacity:1;stroke-miterlimit:10;" d="M 99.953125 204.546875 L 116.554688 194.707031 "/>
<path style="fill:none;stroke-width:1.2;stroke-linecap:butt;stroke-linejoin:miter;stroke:rgb(0%,0%,0%);stroke-opacity:1;stroke-miterlimit:10;" d="M 58.996094 211.128906 L 48.621094 217.277344 "/>
<path style="fill:none;stroke-width:1.2;stroke-linecap:butt;stroke-linejoin:miter;stroke:rgb(20%,80%,80%);stroke-opacity:1;stroke-miterlimit:10;" d="M 48.621094 217.277344 L 38.246094 223.425781 "/>
<path style="fill:none;stroke-width:1.2;stroke-linecap:butt;stroke-linejoin:miter;stroke:rgb(0%,0%,0%);stroke-opacity:1;stroke-miterlimit:10;" d="M 58.996094 211.128906 L 52.847656 200.753906 "/>
<path style="fill:none;stroke-width:1.2;stroke-linecap:butt;stroke-linejoin:miter;stroke:rgb(20%,80%,80%);stroke-opacity:1;stroke-miterlimit:10;" d="M 52.847656 200.753906 L 46.703125 190.378906 "/>
<path style="fill:none;stroke-width:1.2;stroke-linecap:butt;stroke-linejoin:miter;stroke:rgb(0%,0%,0%);stroke-opacity:1;stroke-miterlimit:10;" d="M 58.996094 211.128906 L 65.144531 221.503906 "/>
<path style="fill:none;stroke-width:1.2;stroke-linecap:butt;stroke-linejoin:miter;stroke:rgb(20%,80%,80%);stroke-opacity:1;stroke-miterlimit:10;" d="M 65.144531 221.503906 L 71.292969 231.878906 "/>
<path style=" stroke:none;fill-rule:nonzero;fill:rgb(100%,100%,100%);fill-opacity:1;" d="M 32.246094 217.925781 L 38.246094 217.925781 L 38.246094 228.925781 L 32.246094 228.925781 Z M 32.246094 217.925781 "/>
<g style="fill:rgb(20%,80%,80%);fill-opacity:1;">
  <use xlink:href="#glyph0-3" x="32.246094" y="226.588867"/>
</g>
<path style=" stroke:none;fill-rule:nonzero;fill:rgb(100%,100%,100%);fill-opacity:1;" d="M 40.703125 184.878906 L 46.703125 184.878906 L 46.703125 195.878906 L 40.703125 195.878906 Z M 40.703125 184.878906 "/>
<g style="fill:rgb(20%,80%,80%);fill-opacity:1;">
  <use xlink:href="#glyph0-3" x="40.703125" y="193.541992"/>
</g>
<path style=" stroke:none;fill-rule:nonzero;fill:rgb(100%,100%,100%);fill-opacity:1;" d="M 68.292969 226.378906 L 74.292969 226.378906 L 74.292969 237.378906 L 68.292969 237.378906 Z M 68.292969 226.378906 "/>
<g style="fill:rgb(20%,80%,80%);fill-opacity:1;">
  <use xlink:href="#glyph0-3" x="68.292969" y="235.041992"/>
</g>
</g>
</svg>

<svg xmlns="http://www.w3.org/2000/svg" xmlns:xlink="http://www.w3.org/1999/xlink" width="300pt" height="300pt" viewBox="0 0 300 300"><defs><symbol overflow="visible"><path d="M.453 1.594v-7.938h4.5v7.938zm.5-.5h3.5v-6.938h-3.5zm0 0"/></symbol><symbol overflow="visible" id="a"><path d="M.89-6.563H2.08l2.906 5.485v-5.484h.86V0H4.656L1.75-5.484V0H.89zm0 0"/></symbol><symbol overflow="visible" id="b"><path d="M3.547-5.953c-.65 0-1.164.242-1.547.72-.375.48-.563 1.13-.563 1.952 0 .835.188 1.49.563 1.967.383.48.898.72 1.547.72.644 0 1.156-.24 1.53-.72.376-.476.564-1.132.564-1.968 0-.822-.187-1.474-.562-1.954-.375-.477-.887-.72-1.53-.72zm0-.734c.914 0 1.648.312 2.203.937.55.617.828 1.438.828 2.47 0 1.042-.277 1.87-.828 2.483-.555.617-1.29.922-2.203.922-.93 0-1.668-.305-2.22-.922C.774-1.41.5-2.237.5-3.28c0-1.033.273-1.853.828-2.47.55-.625 1.29-.938 2.22-.938zm0 0"/></symbol><symbol overflow="visible" id="c"><path d="M.89-6.563h3.766v.75h-2.89v1.938h2.61v.734h-2.61V0H.89zm0 0"/></symbol></defs><g><path fill="#fff" d="M0 0h300v300H0z"/><path d="M218.082 202.914l-9.055-7.97" stroke-width="1.2" stroke="#000" stroke-miterlimit="10" fill="none"/><path d="M209.027 194.945l-9.05-7.968M199.977 186.977l-11.77 2.64" stroke-width="1.2" stroke="#00f" stroke-miterlimit="10" fill="none"/><path d="M188.207 189.617l-11.766 2.64M202.223 162.965l-1.12 12.008" stroke-width="1.2" stroke="#000" stroke-miterlimit="10" fill="none"/><path d="M201.102 174.973l-1.125 12.004" stroke-width="1.2" stroke="#00f" stroke-miterlimit="10" fill="none"/><path d="M196.977 181.477h7v11h-7zm0 0" fill="#fff"/><use xlink:href="#a" x="196.977" y="190.14" fill="#00f"/><path d="M164.145 171.508m1.058 2.808l.895-.53m.16 3.34l1.797-1.067m-.74 3.87l2.693-1.594m-1.633 4.402l3.586-2.125m-2.526 4.934l4.484-2.66m-3.43 5.465l5.383-3.188m-4.323 5.996l6.28-3.72m-5.222 6.53l7.176-4.255m-7.003 4.715l7.325-4.34" stroke="#000" stroke-miterlimit="10" fill="none"/><path d="M164.145 171.508L142 161.948M180.082 153.402l-15.937 18.106M142 161.95l6.762-22.067M142 161.95l-20.75 12.292M148.762 139.883l8.898 22.418M148.762 139.883l-22.14-9.563M171.184 130.984l-22.422 8.9M157.66 162.3l22.422-8.898M180.082 153.402l-8.898-22.418M180.082 153.402l22.14 9.563" stroke-width="1.2" stroke="#000" stroke-miterlimit="10" fill="none"/><path d="M202.223 162.965l22.922-8.637-4.34-7.32zm0 0"/><path d="M222.977 150.668L244 162.492M227.86 146.902l16.82 9.46M222.703 126.55l.274 24.118M244 162.492l20.75-12.297M264.75 150.195l-.273-24.117M259.047 147.848l-.22-19.293M264.477 126.078l-21.024-11.824M243.453 114.254l-20.75 12.297M244.273 120.367l-16.6 9.836M126.62 130.32l-2.792-23.957M120.703 128.582l-2.234-19.168M107.266 144.72l19.355-14.4M123.828 106.363L101.684 96.8M101.684 96.8l-19.352 14.4M103.137 102.797l-15.485 11.516M82.332 111.2l2.79 23.956M82.332 111.2l-22.144-9.563M85.12 135.156l22.146 9.563M89.586 130.902l17.715 7.65M58.492 99.363l-9.676 7.196" stroke-width="1.2" stroke="#000" stroke-miterlimit="10" fill="none"/><path d="M48.816 106.56l-9.675 7.198" stroke-width="1.2" stroke="#f00" stroke-miterlimit="10" fill="none"/><path d="M61.88 103.914l-9.677 7.2" stroke-width="1.2" stroke="#000" stroke-miterlimit="10" fill="none"/><path d="M52.203 111.113l-9.676 7.2" stroke-width="1.2" stroke="#f00" stroke-miterlimit="10" fill="none"/><path d="M60.188 101.637l-1.4-11.977" stroke-width="1.2" stroke="#000" stroke-miterlimit="10" fill="none"/><path d="M58.79 89.66l-1.395-11.98" stroke-width="1.2" stroke="#f00" stroke-miterlimit="10" fill="none"/><path d="M32.836 110.535h8v11h-8zm0 0" fill="#fff"/><use xlink:href="#b" x="32.836" y="119.198" fill="#f00"/><path d="M57.395 77.68L46.32 72.898" stroke-width="1.2" stroke="#f00" stroke-miterlimit="10" fill="none"/><path d="M46.32 72.898L35.25 68.12" stroke-width="1.2" stroke="#000" stroke-miterlimit="10" fill="none"/><path d="M53.395 72.18h8v11h-8zm0 0" fill="#fff"/><use xlink:href="#b" x="53.395" y="80.843" fill="#f00"/><path d="M121.25 174.242l-21.023-11.82M116.363 178.008l-16.816-9.457M121.523 198.363l-.273-24.12M100.227 162.422l-20.75 12.293M79.477 174.715l.27 24.117M85.176 177.063l.22 19.296M79.746 198.832l21.024 11.824M79.746 198.832l-20.75 12.297M100.77 210.656l20.753-12.293M99.953 204.547l16.602-9.84M58.996 211.13l-10.375 6.147" stroke-width="1.2" stroke="#000" stroke-miterlimit="10" fill="none"/><path d="M48.62 217.277l-10.374 6.15" stroke-width="1.2" stroke="#3cc" stroke-miterlimit="10" fill="none"/><path d="M58.996 211.13l-6.148-10.376" stroke-width="1.2" stroke="#000" stroke-miterlimit="10" fill="none"/><path d="M52.848 200.754l-6.145-10.375" stroke-width="1.2" stroke="#3cc" stroke-miterlimit="10" fill="none"/><path d="M58.996 211.13l6.15 10.374" stroke-width="1.2" stroke="#000" stroke-miterlimit="10" fill="none"/><path d="M65.145 221.504l6.148 10.375" stroke-width="1.2" stroke="#3cc" stroke-miterlimit="10" fill="none"/><path d="M32.246 217.926h6v11h-6zm0 0" fill="#fff"/><use xlink:href="#c" x="32.246" y="226.589" fill="#3cc"/><path d="M40.703 184.88h6v11h-6zm0 0" fill="#fff"/><use xlink:href="#c" x="40.703" y="193.542" fill="#3cc"/><path d="M68.293 226.38h6v11h-6zm0 0" fill="#fff"/><use xlink:href="#c" x="68.293" y="235.042" fill="#3cc"/></g></svg>
